packages/kaspersky-hexa-ui-icons/src/iconsSVGs/16x12/FlagSm.svg

<svg width="16" height="12" viewBox="0 0 16 12" fill="none" xmlns="http://www.w3.org/2000/svg">
<g clip-path="url(#clip0_41818_3685)">
<rect x="0.25" y="0.25" width="15.5" height="11.5" rx="1.75" fill="white" stroke="#F5F5F5" stroke-width="0.5"/>
<mask id="mask0_41818_3685" style="mask-type:luminance" maskUnits="userSpaceOnUse" x="0" y="0" width="16" height="12">
<rect x="0.25" y="0.25" width="15.5" height="11.5" rx="1.75" fill="white" stroke="white" stroke-width="0.5"/>
</mask>
<g mask="url(#mask0_41818_3685)">
<path fill-rule="evenodd" clip-rule="evenodd" d="M0 12H16V5.6H0V12Z" fill="#7CCCF5"/>
<path d="M6.4762 5.6L6.82685 5.40753L6.0762 5.6H6.4762ZM7.23636 6.98489L7.02824 7.32648L8.30819 8.10629L7.58701 6.79241L7.23636 6.98489ZM8.81992 6.94888L8.4653 6.76382L9.04292 7.28095L8.81992 6.94888ZM9.52382 5.6H9.92382L9.1692 5.41494L9.52382 5.6ZM6.4762 5.6H6.0762C6.0762 6.33046 6.4541 6.97669 7.02824 7.32648L7.23636 6.98489L7.44447 6.64329C7.1096 6.43927 6.8762 6.05248 6.8762 5.6H6.4762ZM7.23636 6.98489L7.58701 6.79241L6.82685 5.40753L6.4762 5.6L6.12555 5.79247L6.88571 7.17736L7.23636 6.98489ZM8.81992 6.94888L9.04292 7.28095C9.57681 6.92241 9.92382 6.30002 9.92382 5.6H9.52382H9.12382C9.12382 6.03342 8.9096 6.40682 8.59692 6.61681L8.81992 6.94888ZM9.52382 5.6L9.1692 5.41494L8.4653 6.76382L8.81992 6.94888L9.17454 7.13393L9.87844 5.78505L9.52382 5.6Z" fill="#445F42"/>
<ellipse cx="7.99994" cy="5.2" rx="0.761905" ry="1.2" fill="#D89F3D"/>
</g>
</g>
<defs>
<clipPath id="clip0_41818_3685">
<rect width="16" height="12" fill="white"/>
</clipPath>
</defs>
</svg>

<svg xmlns="http://www.w3.org/2000/svg" width="16" height="12" fill="none" viewBox="0 0 16 12"><g clip-path="url(#a)"><rect width="16" height="12" fill="#fff" stroke="#f5f5f5" rx="2"/><mask id="b" width="16" height="12" x="0" y="0" maskUnits="userSpaceOnUse" style="mask-type:luminance"><rect width="16" height="12" fill="#fff" stroke="#fff" rx="2"/></mask><g mask="url(#b)"><path fill="#7cccf5" fill-rule="evenodd" d="M0 12h16V5.6H0z" clip-rule="evenodd"/><path fill="#445f42" d="m6.4762 5.6.3506-.1925-.7506.1925zm.7602 1.3849-.2082.3416 1.28.7798-.7212-1.3139zm1.5835-.036-.3546-.185.5776.517zM9.524 5.6h.4l-.7547-.185zm-3.0477 0h-.4c0 .7305.3779 1.3767.952 1.7265l.2082-.3416.208-.3416c-.3348-.204-.5682-.5908-.5682-1.0433zm.7602 1.3849.3506-.1925-.7601-1.3849-.3507.1925-.3507.1925.7602 1.3849zm1.5835-.036.223.332c.534-.3585.881-.9809.881-1.6809h-.8c0 .4334-.2143.8068-.527 1.0168zM9.524 5.6l-.3547-.185-.7039 1.3488.3546.185.3546.1851.704-1.3488z"/><circle cx="8" cy="5" r="1" fill="#d89f3d"/></g></g><defs><clipPath id="a"><path fill="#fff" d="M0 0h16v12H0z"/></clipPath></defs></svg>
